icon/pk/collection-files.svg

<svg viewBox="0 0 48 48" fill="none" xmlns="http://www.w3.org/2000/svg" height="1em" width="1em">
  <path d="M8 44V4H31L40 14.5V44H8Z" fill="#2F88FF" stroke="black" stroke-width="4" stroke-linecap="round" stroke-linejoin="round"/>
  <path d="M24 15L27.0841 21.7551L34.4616 22.6008L28.9902 27.6214L30.4656 34.8992L24 31.247L17.5344 34.8992L19.0098 27.6214L13.5384 22.6008L20.9159 21.7551L24 15Z" fill="#43CCF8" stroke="white" stroke-width="4" stroke-linecap="round" stroke-linejoin="round"/>
</svg>

<svg width="48" height="48" fill="none" xmlns="http://www.w3.org/2000/svg"><path d="M8 44V4h23l9 10.5V44H8Z" fill="#2F88FF" stroke="#000" stroke-width="4" stroke-linecap="round" stroke-linejoin="round"/><path d="m24 15 3.084 6.755 7.378.846-5.472 5.02 1.476 7.278L24 31.247l-6.466 3.652 1.476-7.278-5.472-5.02 7.378-.846L24 15Z" fill="#43CCF8" stroke="#fff" stroke-width="4" stroke-linecap="round" stroke-linejoin="round"/></svg>
